X:3840
L:1/8
M:4/4
K:C
 BEA |[M:2/2][K:G]SOSOO .!fermata!PMTuCO MG2 (BG) BddB | c2 (ec) (ef) g2 | G2 (BG) Bddg | 
 edcB ABcA | G2 (BG) BddB | cBcd efga | bgaf gfeg | edcB A2 G2 || g2 (bg) afed | edef gdBd | 
 g2 (bg) afed | edef g2 (ga) | bagf gfed | edef gdBd | cBcd efge | dBGB A2 G2 |]

